Sources/FrostedUI/Resources/Icons.xcassets/profile32.imageset/profile-32.svg

<svg width="32" height="32" viewBox="0 0 32 32" fill="none" xmlns="http://www.w3.org/2000/svg" data-fui-icon="true">
  <path
    d="M16.001 16.917C20.8531 16.917 24.5539 19.8141 26.0615 23.8906C26.4359 24.9033 26.1827 25.8956 25.583 26.6104C24.9936 27.3125 24.0735 27.75 23.0723 27.75H8.93066C7.92937 27.75 7.00933 27.3126 6.41992 26.6104C5.82023 25.8957 5.567 24.9033 5.94141 23.8906C7.44902 19.8143 11.1492 16.9172 16.001 16.917ZM16.001 18.417C11.8103 18.4172 8.65029 20.8916 7.34863 24.4111C7.17828 24.872 7.28183 25.305 7.56836 25.6465C7.86529 26.0002 8.36094 26.25 8.93066 26.25H23.0723C23.642 26.25 24.1376 26.0002 24.4346 25.6465C24.7211 25.305 24.8247 24.8721 24.6543 24.4111C23.3526 20.8914 20.192 18.417 16.001 18.417ZM16.002 2.91699C19.1774 2.91724 21.752 5.49151 21.752 8.66699C21.7518 11.8423 19.1773 14.4167 16.002 14.417C12.8264 14.417 10.2521 11.8425 10.252 8.66699C10.252 5.49135 12.8263 2.91699 16.002 2.91699ZM16.002 4.41699C13.6548 4.41699 11.752 6.31978 11.752 8.66699C11.7521 11.0141 13.6549 12.917 16.002 12.917C18.3489 12.9167 20.2518 11.0139 20.252 8.66699C20.252 6.31993 18.349 4.41724 16.002 4.41699Z"
    fill="currentColor"
  />
</svg>

<svg xmlns="http://www.w3.org/2000/svg" width="32" height="32" fill="none" data-fui-icon="true" viewBox="0 0 32 32"><path fill="currentColor" d="M16.001 16.917c4.852 0 8.553 2.897 10.06 6.974.375 1.012.122 2.005-.478 2.72-.59.701-1.51 1.139-2.51 1.139H8.93c-1.002 0-1.922-.437-2.511-1.14-.6-.714-.853-1.707-.479-2.72 1.508-4.076 5.208-6.973 10.06-6.973m0 1.5c-4.19 0-7.35 2.475-8.652 5.994-.17.461-.067.894.22 1.235.296.354.792.604 1.362.604h14.141c.57 0 1.066-.25 1.363-.604.286-.341.39-.774.22-1.235-1.302-3.52-4.463-5.994-8.654-5.994m.001-15.5a5.75 5.75 0 1 1 0 11.5 5.75 5.75 0 0 1 0-11.5m0 1.5a4.25 4.25 0 1 0 0 8.5 4.25 4.25 0 0 0 0-8.5"/></svg>
